X:4142
T:McNamara's
O:england
R:hornpipe
S:Fiona Lyons
H:Similar to "The Fairie's Hornpipe", #12
M:C|
K:G
Bc|dBGB cAFA|~G3F GABc|dg~g2 eg~g2|dBGB A2Bc|
dBGB cAFA|~G3F GABc|dg~g2 ecAF|G2GF G2:|
|:Bc|dg~g2 eg~g2|dg~g2 edBc|dg~g2 eg~g2|dBGB A2Bc|
dBGB cAFA|~G3F GABc|dg~g2 ecAF|G2GF G2:|
